!!!OTL: Tianjun dailai taipingchun
!!!ARE: Asia, China,ÿGuangxi Guiping
!! II, 476, 1)
!!!SCT: C1984
!!!YEM: Copyright 1995, estate of Helmut Schaffrath.
**kern
*ICvox
*Ivox
*M2/4
*k[f#c#]
*D:
{8ff#
8ee
8ff#
8ee
=1
8ff#
8ff#
16ee
16ff#
8ee
=2
8b
16dd
16ff#
8ee
8dd
=3
16ee
16dd
8b
4dd}
=4
{8b
8b
8dd
16ee
16ff#
=5
8ee
8dd
4b
=6
8b
8b
8dd
16ee
16ff#
=7
4.ee
8dd
=8
8b
8dd
16b
16dd
16b
16a
=9
2b}
==
!!!AGN: Shange, Kejia shange
!!!AMT: simple duple
!!!AIN: vox
!!!EED: Helmut Schaffrath
!!!EEV: 1.0
*-
